images/icons/notes.svg

<svg width="17" height="19" viewBox="0 0 17 19" fill="none" xmlns="http://www.w3.org/2000/svg">
<path fill-rule="evenodd" clip-rule="evenodd" d="M4.37528 0.0686989C4.15128 0.194058 4.10938 0.29266 4.0958 0.726257L4.08367 1.11332H2.26647C0.521938 1.11332 0.443371 1.11629 0.302315 1.18754C0.208668 1.23485 0.127186 1.31409 0.0776771 1.40597L0 1.55018V10.0626C0 18.2804 0.00227626 18.5794 0.0659402 18.7042C0.102218 18.7753 0.194228 18.8708 0.270447 18.9164L0.409014 18.9993L6.55454 18.9999C12.6442 19.0005 12.7013 18.9998 12.8404 18.9258C12.9308 18.8777 13.0063 18.7989 13.0524 18.7046C13.123 18.5603 13.124 18.4943 13.124 14.3352V10.1123L15.0277 8.12703C17.0594 6.00821 17.0386 6.03363 16.9848 5.72784C16.9631 5.60427 16.8468 5.46651 16.1178 4.701C15.6547 4.21471 15.2326 3.79306 15.1798 3.76396C15.0651 3.7008 14.8567 3.69509 14.7488 3.75209C14.7061 3.77465 14.323 4.15444 13.8976 4.59605L13.124 5.39893V3.47458C13.124 1.56488 13.1234 1.54911 13.0463 1.40597C12.9968 1.31409 12.9154 1.23485 12.8217 1.18754C12.6803 1.11614 12.6021 1.11332 10.7508 1.11332H8.82695L8.81482 0.732937C8.80458 0.411339 8.79042 0.334632 8.72338 0.236512C8.55832 -0.00492806 8.60583 7.61509e-06 6.44937 7.61509e-06C4.61816 7.61509e-06 4.49048 0.00423819 4.37528 0.0686989ZM7.75349 1.66997V2.22663H6.45531H5.15713V1.66997V1.11332H6.45531H7.75349V1.66997ZM4.09021 2.5699C4.09025 2.96795 4.14591 3.12359 4.33548 3.2557L4.45633 3.33994H6.45531H8.45429L8.57514 3.2557C8.76471 3.12359 8.82037 2.96795 8.82041 2.5699L8.82048 2.22663H10.4388H12.057V3.3585V4.49036H6.56201H1.06699V3.3585V2.22663H2.57857H4.09014L4.09021 2.5699ZM15.3471 6.23392L14.9735 6.62376L14.5916 6.22527L14.2096 5.82678L14.5821 5.43686L14.9545 5.04694L15.3376 5.44551L15.7208 5.84404L15.3471 6.23392ZM12.057 6.0585V6.51328L10.892 7.72846L9.72703 8.9436H8.62952C7.56705 8.9436 7.52757 8.9462 7.39377 9.02465C7.24816 9.11004 7.11329 9.33876 7.11329 9.50026C7.11329 9.66176 7.24816 9.89048 7.39377 9.97587C7.51971 10.0497 7.58205 10.0569 8.09578 10.0569H8.65954L8.12693 10.6136L7.59433 11.1702H5.10094H2.60755L2.45455 11.2547C2.08803 11.4569 2.07288 11.9842 2.42709 12.2095C2.53905 12.2808 2.60997 12.2833 4.50805 12.2834C5.5888 12.2835 6.47309 12.2963 6.47309 12.3119C6.47309 12.3274 6.24084 12.5821 5.95695 12.8778L5.44085 13.4154L3.95029 13.434L2.4597 13.4525L2.3646 13.5453C2.02362 13.8779 2.14932 14.3995 2.59635 14.507C2.68644 14.5286 3.20354 14.5459 3.77961 14.5464L4.80282 14.5473L4.78397 14.6308C4.76014 14.7363 4.58807 15.629 4.58807 15.6471C4.58807 15.6545 4.12795 15.6607 3.56554 15.6607C2.60795 15.6608 2.53564 15.6656 2.42709 15.7346C2.07288 15.9599 2.08803 16.4872 2.45455 16.6895C2.60521 16.7726 2.62626 16.7739 3.84459 16.7739H5.08163L6.01745 16.573C6.53213 16.4625 7.00125 16.3604 7.05994 16.346C7.13847 16.3267 7.81235 15.6474 9.61183 13.7732L12.057 11.2266V14.5569V17.8872H6.56201H1.06699V11.7454V5.60367H6.56201H12.057V6.0585ZM13.8357 7.03275L14.2081 7.42271L11.1765 10.5859L8.14489 13.7491L7.76263 13.3503L7.38032 12.9514L10.4033 9.79707C12.0658 8.0622 13.4345 6.64276 13.4447 6.64276C13.4549 6.64276 13.6308 6.81826 13.8357 7.03275ZM2.42709 6.79102C2.36332 6.83158 2.27903 6.91916 2.23976 6.9857C2.1713 7.10163 2.16874 7.16056 2.17784 8.41211C2.18691 9.65835 2.19061 9.72218 2.25961 9.81856C2.29937 9.87407 2.38715 9.95041 2.45469 9.98822C2.56879 10.0521 2.68566 10.0569 4.10736 10.0563C6.22278 10.0555 6.04633 10.2073 6.04622 8.38754C6.04619 6.99969 6.04142 6.96881 5.80096 6.80122L5.6801 6.71698L4.11155 6.71713C2.60912 6.71724 2.53813 6.72036 2.42709 6.79102ZM7.4119 6.77001C7.23742 6.84928 7.13107 7.03543 7.13107 7.26165C7.13107 7.46921 7.19623 7.5952 7.37595 7.73522C7.4702 7.80862 7.51868 7.81174 8.57151 7.81174C9.62922 7.81174 9.67247 7.80892 9.76928 7.7341C10.1038 7.47552 10.111 7.02886 9.7844 6.80122C9.66532 6.71821 9.64793 6.71702 8.59292 6.71843C7.7744 6.71954 7.4963 6.73168 7.4119 6.77001ZM4.9793 8.38695V8.9436H4.10792H3.23655V8.38695V7.83029H4.10792H4.9793V8.38695ZM7.00723 14.1586L7.38004 14.5493L7.00659 14.9313L6.63314 15.3133L6.19294 15.3956C5.9508 15.4409 5.74476 15.4696 5.73505 15.4596C5.72538 15.4494 5.75454 15.2359 5.79993 14.9849L5.88244 14.5287L6.23786 14.1483C6.43337 13.9391 6.60255 13.768 6.61386 13.768C6.62517 13.768 6.80219 13.9437 7.00723 14.1586Z" fill="#FFB500"/>
</svg>

<svg width="17" height="19" fill="none" xmlns="http://www.w3.org/2000/svg"><path fill-rule="evenodd" clip-rule="evenodd" d="M4.375.069c-.224.125-.266.224-.28.657l-.011.387H2.266c-1.744 0-1.823.003-1.964.075a.533.533 0 00-.224.218L0 1.55v8.513c0 8.217.002 8.516.066 8.641a.632.632 0 00.204.212L.41 19h6.146c6.09.002 6.146 0 6.285-.073a.501.501 0 00.212-.221c.071-.145.072-.21.072-4.37v-4.223l1.904-1.985c2.031-2.119 2.01-2.093 1.957-2.4-.022-.123-.138-.26-.867-1.026-.463-.486-.885-.908-.938-.937a.539.539 0 00-.431-.012c-.043.023-.426.402-.851.844l-.774.803V3.475c0-1.91 0-1.926-.078-2.069a.533.533 0 00-.224-.218c-.142-.072-.22-.075-2.071-.075H8.827l-.012-.38C8.805.41 8.79.335 8.723.237 8.558-.005 8.606 0 6.45 0 4.62 0 4.49.004 4.375.069zM7.753 1.67v.557H5.157V1.113h2.596v.557zm-3.663.9c0 .398.056.554.245.686l.121.084h3.998l.121-.084c.19-.132.245-.288.245-.686v-.343h3.237V4.49H1.067V2.227H4.09v.343zm11.257 3.664l-.373.39-.382-.399-.382-.398.372-.39.372-.39.384.399.383.398-.374.39zm-3.29-.175v.454l-1.165 1.215-1.165 1.216H8.63c-1.063 0-1.102.002-1.236.08a.651.651 0 00-.28.476c0 .162.134.39.28.476.126.074.188.08.702.08h.564l-.533.558-.533.556H2.608l-.153.085a.557.557 0 00-.028.954c.112.072.183.074 2.081.074 1.08 0 1.965.013 1.965.029 0 .015-.232.27-.516.566l-.516.537-1.49.019-1.491.019-.095.092c-.341.333-.216.854.231.962.09.022.608.039 1.184.04h1.023l-.019.084c-.024.105-.196.998-.196 1.016 0 .008-.46.014-1.022.014-.958 0-1.03.005-1.139.074a.557.557 0 00.028.954c.15.084.171.085 1.39.085h1.237l.935-.201c.515-.11.984-.213 1.043-.227.078-.02.752-.699 2.552-2.573l2.445-2.546v6.66H1.067V5.604h10.99v.455zm1.779.974l.372.39-3.031 3.163-3.032 3.163-.382-.399-.383-.399 3.023-3.154a361.292 361.292 0 013.042-3.154c.01 0 .186.175.39.39zM2.427 6.79a.689.689 0 00-.187.195c-.069.116-.071.175-.062 1.426.009 1.246.013 1.31.082 1.407a.71.71 0 00.195.17c.114.063.23.068 1.652.067 2.116 0 1.94.151 1.94-1.668C6.046 7 6.04 6.968 5.8 6.8l-.12-.084H4.11c-1.502 0-1.573.003-1.684.074zm4.985-.021c-.175.08-.28.265-.28.492 0 .207.064.333.244.473.094.074.143.077 1.196.077 1.057 0 1.1-.003 1.197-.078.335-.258.342-.705.015-.933-.119-.083-.136-.084-1.191-.083-.819.002-1.097.014-1.181.052zM4.979 8.387v.557H3.237V7.83h1.742v.557zm2.028 5.772l.373.39-.373.382-.374.382-.44.083c-.242.045-.448.074-.458.064-.01-.01.02-.224.065-.475l.082-.456.356-.38c.195-.21.365-.381.376-.381.011 0 .188.176.393.39z" fill="#FFB500"/></svg>
